img/svgicons/whatsapp.svg

<svg width="31" height="31" viewBox="0 0 31 31" fill="none" xmlns="http://www.w3.org/2000/svg">
<circle cx="15.5" cy="15.5" r="15.5" fill="#337D5A"/>
<g clip-path="url(#clip0_9_131)">
<path d="M24 15.307C24 19.3423 20.7033 22.6136 16.6357 22.6136C15.3449 22.6136 14.1324 22.2834 13.0769 21.7053L9 23L10.329 19.0787C9.65885 17.9782 9.27293 16.6859 9.27293 15.3066C9.27342 11.2713 12.5691 8 16.6367 8C20.7038 8.00098 24 11.2718 24 15.307ZM16.6352 9.1651C13.2216 9.1651 10.4449 11.9208 10.4449 15.3085C10.4449 16.6526 10.8831 17.897 11.6242 18.9094L10.8513 21.1902L13.2295 20.4345C14.2077 21.0763 15.3782 21.45 16.6352 21.45C20.0488 21.45 22.8266 18.6947 22.8266 15.307C22.8276 11.9208 20.0493 9.1651 16.6352 9.1651ZM20.3546 16.9901C20.3086 16.9163 20.1882 16.8713 20.0083 16.7813C19.8287 16.6913 18.94 16.2584 18.7752 16.1997C18.6089 16.1395 18.4885 16.1092 18.3682 16.2887C18.2494 16.4682 17.9031 16.8713 17.7969 16.9916C17.6918 17.1114 17.5866 17.1266 17.4061 17.0381C17.2256 16.9471 16.6436 16.7593 15.9539 16.1493C15.4173 15.6739 15.0549 15.0884 14.9502 14.9089C14.8441 14.7299 14.9394 14.633 15.029 14.544C15.1097 14.4633 15.2094 14.3347 15.2999 14.2295C15.3904 14.1253 15.4203 14.0515 15.4804 13.9316C15.5396 13.8118 15.5098 13.7076 15.4653 13.6171C15.4203 13.5271 15.0598 12.6467 14.9086 12.2882C14.7585 11.9301 14.6083 11.9893 14.5027 11.9893C14.3975 11.9893 14.2772 11.9746 14.1568 11.9746C14.0365 11.9746 13.8409 12.0182 13.676 12.1977C13.5112 12.3772 13.0446 12.8101 13.0446 13.6915C13.0446 14.5738 13.6907 15.4244 13.7812 15.5438C13.8722 15.6626 15.0304 17.5306 16.8651 18.2477C18.7008 18.9642 18.7008 18.725 19.0315 18.6947C19.3631 18.6644 20.0997 18.2618 20.2494 17.8441C20.4 17.4245 20.4 17.065 20.3546 16.9901Z" fill="white"/>
</g>
<defs>
<clipPath id="clip0_9_131">
<rect width="15" height="15" fill="white" transform="translate(9 8)"/>
</clipPath>
</defs>
</svg>

<svg width="31" height="31" fill="none" xmlns="http://www.w3.org/2000/svg"><circle cx="15.5" cy="15.5" r="15.5" fill="#337D5A"/><g clip-path="url(#a)"><path d="M24 15.307c0 4.035-3.297 7.307-7.364 7.307-1.291 0-2.504-.33-3.56-.909L9 23l1.329-3.921a7.232 7.232 0 0 1-1.056-3.772C9.273 11.27 12.569 8 16.637 8 20.704 8.001 24 11.272 24 15.307Zm-7.365-6.142c-3.413 0-6.19 2.756-6.19 6.144 0 1.344.438 2.588 1.18 3.6l-.774 2.281 2.378-.756a6.189 6.189 0 0 0 3.406 1.016c3.414 0 6.192-2.755 6.192-6.143 0-3.386-2.778-6.142-6.192-6.142Zm3.72 7.825c-.046-.074-.167-.119-.347-.209-.18-.09-1.068-.523-1.233-.581-.166-.06-.287-.09-.407.089-.119.18-.465.582-.571.703-.105.12-.21.135-.39.046-.181-.09-.763-.279-1.453-.889a5.388 5.388 0 0 1-1.004-1.24c-.106-.18-.01-.276.079-.365.08-.08.18-.21.27-.315.091-.104.121-.177.181-.297s.03-.224-.015-.315c-.045-.09-.405-.97-.556-1.329-.15-.358-.3-.299-.406-.299-.105 0-.226-.014-.346-.014a.661.661 0 0 0-.481.223c-.165.18-.631.612-.631 1.493 0 .883.646 1.733.736 1.853.091.119 1.25 1.987 3.084 2.704 1.836.716 1.836.477 2.167.447.331-.03 1.068-.433 1.217-.85.151-.42.151-.78.106-.855Z" fill="#fff"/></g><defs><clipPath id="a"><path fill="#fff" transform="translate(9 8)" d="M0 0h15v15H0z"/></clipPath></defs></svg>
